Papirus/64x64/apps/com.github.babluboy.nutty.svg

<?xml version="1.0" encoding="UTF-8" standalone="no"?>
<svg
   id="_图层_1"
   version="1.1"
   viewBox="0 0 64 64" width="64" height="64"
   sodipodi:docname="com.github.babluboy.nutty.svg"
   xml:space="preserve"
   inkscape:version="1.4 (e7c3feb100, 2024-10-09)"
   xmlns:inkscape="http://www.inkscape.org/namespaces/inkscape"
   xmlns:sodipodi="http://sodipodi.sourceforge.net/DTD/sodipodi-0.dtd"
   xmlns="http://www.w3.org/2000/svg"
   xmlns:svg="http://www.w3.org/2000/svg"><sodipodi:namedview
     id="namedview26"
     pagecolor="#505050"
     bordercolor="#eeeeee"
     borderopacity="1"
     inkscape:showpageshadow="0"
     inkscape:pageopacity="0"
     inkscape:pagecheckerboard="0"
     inkscape:deskcolor="#505050"
     inkscape:zoom="10.6875"
     inkscape:cx="32"
     inkscape:cy="39.578947"
     inkscape:window-width="1920"
     inkscape:window-height="939"
     inkscape:window-x="0"
     inkscape:window-y="34"
     inkscape:window-maximized="1"
     inkscape:current-layer="_图层_1" /><!-- Generator: Adobe Illustrator 29.0.1, SVG Export Plug-In . SVG Version: 2.1.0 Build 192)  --><defs
     id="defs6"><style
       id="style1">
      .st0 {
        fill-opacity: .5;
      }

      .st0, .st1, .st2, .st3, .st4, .st5, .st6, .st7 {
        fill: #fff;
      }

      .st8 {
        fill: #133c9a;
      }

      .st2, .st9 {
        display: none;
      }

      .st3 {
        fill-opacity: .2;
      }

      .st4 {
        fill-opacity: .9;
      }

      .st10 {
        fill: #3370ff;
      }

      .st11 {
        fill: url(#_未命名的渐变_3);
      }

      .st12 {
        fill: url(#_未命名的渐变);
      }

      .st5 {
        fill-opacity: .3;
      }

      .st6 {
        fill-opacity: 0;
      }

      .st7 {
        fill-opacity: .7;
      }

      .st13 {
        fill: #00d6b9;
      }

      .st14 {
        fill: url(#_未命名的渐变_2);
      }
    </style><radialGradient
       id="_未命名的渐变"
       data-name="未命名的渐变"
       cx="123.9"
       cy="-40.2"
       fx="123.9"
       fy="-40.2"
       r="59.4"
       gradientTransform="translate(-26.8 25.5) scale(.6 -.7)"
       gradientUnits="userSpaceOnUse"><stop
         offset="0"
         stop-color="#db202e"
         id="stop1" /><stop
         offset="1"
         stop-color="#e01b24"
         id="stop2" /></radialGradient><radialGradient
       id="_未命名的渐变_2"
       data-name="未命名的渐变 2"
       cx="67.6"
       cy="26.8"
       fx="67.6"
       fy="26.8"
       r="105.2"
       gradientTransform="translate(-26.6 25.3) scale(.6 -.7)"
       gradientUnits="userSpaceOnUse"><stop
         offset="0"
         stop-color="#ffb648"
         id="stop3" /><stop
         offset="1"
         stop-color="#ff7800"
         stop-opacity="0"
         id="stop4" /></radialGradient><radialGradient
       id="_未命名的渐变_3"
       data-name="未命名的渐变 3"
       cx="61.7"
       cy="18.6"
       fx="61.7"
       fy="18.6"
       r="68"
       gradientTransform="translate(-26.8 25.8) scale(.6 -.7)"
       gradientUnits="userSpaceOnUse"><stop
         offset="0"
         stop-color="#c64600"
         id="stop5" /><stop
         offset="1"
         stop-color="#a51d2d"
         id="stop6" /></radialGradient></defs><path
     class="st1"
     d="M47.5,64.1H13.8c-7.6,0-13.8-6.3-13.8-13.8V13.7C0,6.2,6.2,0,13.7,0h36.6c7.5,0,13.7,6.2,13.7,13.7v36.6c0,7.5-6.2,13.7-13.7,13.7h-2.9.1Z"
     id="path6"
     style="fill:#f9f9f9;fill-opacity:1" /><g
     transform="translate(-0.00158414,-1059.0197)"
     id="g13"><path
       style="opacity:0.2"
       d="m 32.00161,1067.1672 -22.9999641,11.5 v 1.8514 23.8555 l 19.9999691,10 v 0.144 h 0.289061 l 2.710934,1.3556 2.710934,-1.3556 h 0.289062 v -0.144 l 19.999969,-10 v -25.7069 z m -2.999995,8.207 v 11.8476 l -10.773421,-6.461 z m 5.999991,0 10.769515,5.3866 -10.769515,6.461 z m -19.999969,10.4452 10.769515,6.461 -10.769515,5.3868 z m 33.999947,0 v 11.8478 l -10.769515,-5.3868 z m -19.999969,11.5548 v 10.2929 l -10.292953,-5.1486 z m 5.999991,0 10.292952,5.1443 -10.292952,5.1486 z"
       id="path1" /><path
       style="fill:none;stroke:#364451;stroke-width:5.99999"
       d="m 32.001498,1069.5204 v 22"
       id="path2" /><path
       style="fill:none;stroke:#364451;stroke-width:5.99999"
       d="m 12.00153,1101.5204 19.999968,-10 19.999969,10"
       id="path3" /><path
       style="fill:none;stroke:#7e8f99;stroke-width:5.99999"
       d="m 12.00153,1079.5204 19.999968,12 19.999969,-12"
       id="path4" /><path
       style="fill:none;stroke:#7e8f99;stroke-width:5.99999"
       d="m 32.001498,1113.5203 v -21.9999"
       id="path5" /><path
       style="fill:none;stroke:#53626c;stroke-width:5.99999"
       d="m 12.00153,1079.5204 19.999968,-10 19.999819,9.9998 v 22 l -19.999819,10.0001 -19.999968,-9.9999 z"
       id="path6-9" /><path
       style="opacity:0.2"
       d="m 32.00161,1063.5198 c -3.865988,0 -6.999991,3.134 -6.999989,7 -2e-6,3.866 3.134001,7 6.999989,7 3.865988,0 6.999991,-3.134 6.999989,-7 2e-6,-3.866 -3.134001,-7 -6.999989,-7 z m 19.835908,10.004 c -1.172635,0.026 -2.319737,0.3478 -3.335933,0.9336 -3.348301,1.9328 -4.495595,6.2142 -2.562496,9.5624 1.932853,3.3484 6.21426,4.4958 9.562485,2.5626 3.348421,-1.9328 4.495733,-6.2144 2.562496,-9.5626 -1.280374,-2.216 -3.668006,-3.5566 -6.226552,-3.496 z m -40.167907,0 c -2.3807809,0.114 -4.5400918,1.431 -5.7304604,3.496 -1.9333214,3.3482 -0.7859929,7.6298 2.5624961,9.5626 3.3482133,1.9332 7.6296853,0.7858 9.5624853,-2.5626 1.933185,-3.3482 0.785873,-7.6296 -2.562496,-9.5624 -1.161849,-0.6708 -2.491975,-0.9934 -3.832025,-0.9298 z m 20.331999,11.996 c -3.865988,0 -6.999991,3.134 -6.999989,7 -2e-6,3.866 3.134001,7 6.999989,7 3.865988,0 6.999991,-3.134 6.999989,-7 2e-6,-3.866 -3.134001,-7 -6.999989,-7 z m -20.164031,10.004 c -1.172634,0.026 -2.3197353,0.3478 -3.3359323,0.9336 -3.3482934,1.9328 -4.4955869,6.2141 -2.5624961,9.5623 1.9328579,3.3484 6.2142594,4.4958 9.5624854,2.5626 3.348413,-1.9328 4.495723,-6.2144 2.562496,-9.5625 -1.280377,-2.216 -3.668008,-3.5566 -6.226553,-3.496 z m 39.831969,0 c -2.380009,0.112 -4.539141,1.4288 -5.730459,3.4922 -1.933237,3.3481 -0.785925,7.6297 2.562496,9.5625 3.348224,1.9332 7.629632,0.7858 9.562485,-2.5626 1.933099,-3.3482 0.785805,-7.6295 -2.562496,-9.5623 -1.161852,-0.6708 -2.491976,-0.9934 -3.832026,-0.9298 z m -19.667938,9.9959 c -3.865988,0 -6.999989,3.134 -6.999989,7 0,3.866 3.134001,7 6.999989,7 3.865988,0 6.999989,-3.134 6.999989,-7 0,-3.866 -3.134001,-7 -6.999989,-7 z"
       id="path7" /><circle
       style="fill:#9bdb4d"
       cx="32.000999"
       cy="1069.52"
       r="7"
       id="circle7" /><circle
       style="fill:#9bdb4d"
       cx="32.000999"
       cy="1111.52"
       r="7"
       id="circle8" /><circle
       style="fill:#9bdb4d"
       cx="960.89301"
       cy="494.72501"
       r="7"
       transform="rotate(59.999999)"
       id="circle9" /><circle
       style="fill:#9bdb4d"
       cx="959.94501"
       cy="540.36603"
       r="7"
       transform="rotate(59.999999)"
       id="circle10" /><circle
       style="fill:#9bdb4d"
       cx="927.94397"
       cy="-595.79498"
       r="7"
       transform="rotate(120)"
       id="circle11" /><circle
       style="fill:#9bdb4d"
       cx="928.89099"
       cy="-550.15399"
       r="7"
       transform="rotate(120)"
       id="circle12" /><circle
       style="fill:#9bdb4d"
       cx="32.000999"
       cy="1091.52"
       r="7"
       id="circle13" /><path
       style="opacity:0.2;fill:#ffffff"
       transform="translate(0,1058.5197)"
       d="m 32.001953,4 c -3.865988,0 -7.000002,3.134 -7,7 0.001,0.128162 0.02319,0.254952 0.03125,0.382812 C 25.346586,7.8068033 28.344595,5 32.001953,5 c 3.66397,0 6.664548,2.8170821 6.96875,6.402344 0.0084,-0.134347 0.03064,-0.267644 0.03125,-0.402344 2e-6,-3.866 -3.134012,-7 -7,-7 z M 12.166016,13.998047 V 14 c -0.165404,0 -0.330874,-9.34e-4 -0.496094,0.0098 -2.3800156,0.1129 -4.5391669,1.428687 -5.7304689,3.492187 -0.6931488,1.205106 -0.984408,2.585709 -0.890625,3.964844 0.078414,-1.036767 0.3658357,-2.052447 0.890625,-2.964844 C 7.1307551,16.438487 9.2899064,15.1227 11.669922,15.0098 11.835142,14.999066 12.000612,15 12.166016,15 v -0.002 c 1.172976,0.028 2.320105,0.3503 3.335937,0.9375 2.032493,1.17574 3.29035,3.272708 3.457031,5.550781 C 19.146103,18.833722 17.829641,16.282003 15.501953,14.9355 14.486121,14.3483 13.338992,14.026 12.166016,13.998 Z M 51.837891,14 c -1.172635,0.027 -2.31974,0.347794 -3.335938,0.933594 -2.325549,1.345554 -3.642661,3.894991 -3.457031,6.546875 0.167747,-2.277113 1.42644,-4.371983 3.457031,-5.546875 C 49.518151,15.347794 50.665256,15.027 51.837891,15 c 2.558564,-0.0605 4.946212,1.280094 6.226562,3.496094 0.528504,0.915628 0.818126,1.935346 0.896485,2.976562 0.0946,-1.383557 -0.199157,-2.768448 -0.896485,-3.976562 C 56.784103,15.280094 54.396455,13.9395 51.837891,14 Z M 32.001953,25.996094 c -3.865988,0 -7.000002,3.134 -7,7 0.001,0.1282 0.02319,0.254955 0.03125,0.382812 0.313383,-3.576009 3.311392,-6.382812 6.96875,-6.382812 3.66397,0 6.664548,2.817082 6.96875,6.402344 0.0084,-0.134347 0.03065,-0.267644 0.03125,-0.402344 2e-6,-3.866 -3.134012,-7 -7,-7 z m -20.164062,10 c -1.172633,0.027 -2.3197403,0.347893 -3.3359379,0.933594 -2.3255452,1.345648 -3.6426586,3.894917 -3.4570312,6.546874 0.167749,-2.277147 1.4264435,-4.3719 3.4570312,-5.546874 1.0161976,-0.585701 2.1633049,-0.906594 3.3359379,-0.933594 2.558564,-0.0606 4.946209,1.280094 6.226562,3.496094 0.528504,0.915628 0.818126,1.935316 0.896485,2.976562 0.0946,-1.383575 -0.199158,-2.768448 -0.896485,-3.976562 -1.280353,-2.216 -3.667998,-3.556694 -6.226562,-3.496094 z m 40.328125,0 c -0.1654,0 -0.330874,-8.35e-4 -0.496094,0.0098 -2.380007,0.113 -4.539147,1.428688 -5.730469,3.492188 -0.6932,1.205665 -0.984887,2.587214 -0.890625,3.966797 0.07813,-1.037201 0.365761,-2.053916 0.890625,-2.966797 1.191322,-2.0635 3.350462,-3.379188 5.730469,-3.492188 0.16522,-0.0106 0.330694,-0.0098 0.496094,-0.0098 v 0.002 c 1.172974,0.028 2.320102,0.3504 3.335937,0.9375 2.032468,1.175822 3.290331,3.272761 3.457031,5.550781 0.187086,-2.652476 -1.129371,-5.204185 -3.457031,-6.550781 -1.015835,-0.5871 -2.162963,-0.9095 -3.335937,-0.9375 z m -20.164063,9.996094 c -3.865988,0 -7,3.134 -7,7 0.001,0.1282 0.02319,0.254955 0.03125,0.382812 0.313385,-3.576009 3.311392,-6.382812 6.96875,-6.382812 3.66397,0 6.664547,2.817082 6.96875,6.402343 0.0084,-0.134346 0.03064,-0.267643 0.03125,-0.402343 0,-3.866 -3.134012,-7 -7,-7 z"
       id="path13" /></g></svg>

<svg xmlns="http://www.w3.org/2000/svg" width="64" height="64" version="1.1">
 <g transform="translate(0,-1058.5197)">
  <path style="opacity:0.2" d="m 32.00161,1067.1672 -22.9999641,11.5 v 1.8514 23.8555 l 19.9999691,10 v 0.144 h 0.289061 l 2.710934,1.3556 2.710934,-1.3556 h 0.289062 v -0.144 l 19.999969,-10 v -25.7069 z m -2.999995,8.207 v 11.8476 l -10.773421,-6.461 z m 5.999991,0 10.769515,5.3866 -10.769515,6.461 z m -19.999969,10.4452 10.769515,6.461 -10.769515,5.3868 z m 33.999947,0 v 11.8478 l -10.769515,-5.3868 z m -19.999969,11.5548 v 10.2929 l -10.292953,-5.1486 z m 5.999991,0 10.292952,5.1443 -10.292952,5.1486 z"/>
  <path style="fill:none;stroke:#364451;stroke-width:5.99999046" d="m 32.001498,1069.5204 v 22"/>
  <path style="fill:none;stroke:#364451;stroke-width:5.99999046" d="m 12.00153,1101.5204 19.999968,-10 19.999969,10"/>
  <path style="fill:none;stroke:#7e8f99;stroke-width:5.99999046" d="m 12.00153,1079.5204 19.999968,12 19.999969,-12"/>
  <path style="fill:none;stroke:#7e8f99;stroke-width:5.99999046" d="m 32.001498,1113.5203 v -21.9999"/>
  <path style="fill:none;stroke:#53626c;stroke-width:5.99999046" d="m 12.00153,1079.5204 19.999968,-10 19.999819,9.9998 v 22 l -19.999819,10.0001 -19.999968,-9.9999 z"/>
  <path style="opacity:0.2" d="m 32.00161,1063.5198 c -3.865988,0 -6.999991,3.134 -6.999989,7 -2e-6,3.866 3.134001,7 6.999989,7 3.865988,0 6.999991,-3.134 6.999989,-7 2e-6,-3.866 -3.134001,-7 -6.999989,-7 z m 19.835908,10.004 c -1.172635,0.026 -2.319737,0.3478 -3.335933,0.9336 -3.348301,1.9328 -4.495595,6.2142 -2.562496,9.5624 1.932853,3.3484 6.21426,4.4958 9.562485,2.5626 3.348421,-1.9328 4.495733,-6.2144 2.562496,-9.5626 -1.280374,-2.216 -3.668006,-3.5566 -6.226552,-3.496 z m -40.167907,0 c -2.3807809,0.114 -4.5400918,1.431 -5.7304604,3.496 -1.9333214,3.3482 -0.7859929,7.6298 2.5624961,9.5626 3.3482133,1.9332 7.6296853,0.7858 9.5624853,-2.5626 1.933185,-3.3482 0.785873,-7.6296 -2.562496,-9.5624 -1.161849,-0.6708 -2.491975,-0.9934 -3.832025,-0.9298 z m 20.331999,11.996 c -3.865988,0 -6.999991,3.134 -6.999989,7 -2e-6,3.866 3.134001,7 6.999989,7 3.865988,0 6.999991,-3.134 6.999989,-7 2e-6,-3.866 -3.134001,-7 -6.999989,-7 z m -20.164031,10.004 c -1.172634,0.026 -2.3197353,0.3478 -3.3359323,0.9336 -3.3482934,1.9328 -4.4955869,6.2141 -2.5624961,9.5623 1.9328579,3.3484 6.2142594,4.4958 9.5624854,2.5626 3.348413,-1.9328 4.495723,-6.2144 2.562496,-9.5625 -1.280377,-2.216 -3.668008,-3.5566 -6.226553,-3.496 z m 39.831969,0 c -2.380009,0.112 -4.539141,1.4288 -5.730459,3.4922 -1.933237,3.3481 -0.785925,7.6297 2.562496,9.5625 3.348224,1.9332 7.629632,0.7858 9.562485,-2.5626 1.933099,-3.3482 0.785805,-7.6295 -2.562496,-9.5623 -1.161852,-0.6708 -2.491976,-0.9934 -3.832026,-0.9298 z m -19.667938,9.9959 c -3.865988,0 -6.999989,3.134 -6.999989,7 0,3.866 3.134001,7 6.999989,7 3.865988,0 6.999989,-3.134 6.999989,-7 0,-3.866 -3.134001,-7 -6.999989,-7 z"/>
  <circle style="fill:#9bdb4d" cx="32.001" cy="1069.52" r="7"/>
  <circle style="fill:#9bdb4d" cx="32.001" cy="1111.52" r="7"/>
  <circle style="fill:#9bdb4d" cx="960.893" cy="494.725" r="7" transform="rotate(59.999999)"/>
  <circle style="fill:#9bdb4d" cx="959.945" cy="540.366" r="7" transform="rotate(59.999999)"/>
  <circle style="fill:#9bdb4d" cx="927.944" cy="-595.795" r="7" transform="rotate(120)"/>
  <circle style="fill:#9bdb4d" cx="928.891" cy="-550.154" r="7" transform="rotate(120)"/>
  <circle style="fill:#9bdb4d" cx="32.001" cy="1091.52" r="7"/>
  <path style="opacity:0.2;fill:#ffffff" transform="translate(0,1058.5197)" d="M 32.001953 4 C 28.135965 4 25.001951 7.134 25.001953 11 C 25.00296 11.128162 25.025144 11.254952 25.033203 11.382812 C 25.346586 7.8068033 28.344595 5 32.001953 5 C 35.665923 5 38.666501 7.8170821 38.970703 11.402344 C 38.979074 11.267997 39.001345 11.1347 39.001953 11 C 39.001955 7.134 35.867941 4 32.001953 4 z M 12.166016 13.998047 L 12.166016 14 C 12.000612 14 11.835142 13.999066 11.669922 14.009766 C 9.2899064 14.122666 7.1307551 15.438453 5.9394531 17.501953 C 5.2463043 18.707059 4.9550451 20.087662 5.0488281 21.466797 C 5.1272419 20.43003 5.4146638 19.41435 5.9394531 18.501953 C 7.1307551 16.438453 9.2899064 15.122666 11.669922 15.009766 C 11.835142 14.999066 12.000612 15 12.166016 15 L 12.166016 14.998047 C 13.338992 15.026047 14.486121 15.348347 15.501953 15.935547 C 17.534446 17.111287 18.792303 19.208255 18.958984 21.486328 C 19.146103 18.833769 17.829641 16.28205 15.501953 14.935547 C 14.486121 14.348347 13.338992 14.026047 12.166016 13.998047 z M 51.837891 14 C 50.665256 14.027 49.518151 14.347794 48.501953 14.933594 C 46.176404 16.279148 44.859292 18.828585 45.044922 21.480469 C 45.212669 19.203356 46.471362 17.108486 48.501953 15.933594 C 49.518151 15.347794 50.665256 15.027 51.837891 15 C 54.396455 14.9395 56.784103 16.280094 58.064453 18.496094 C 58.592957 19.411722 58.882579 20.43144 58.960938 21.472656 C 59.055537 20.089099 58.761781 18.704208 58.064453 17.496094 C 56.784103 15.280094 54.396455 13.9395 51.837891 14 z M 32.001953 25.996094 C 28.135965 25.996094 25.001951 29.130094 25.001953 32.996094 C 25.00296 33.124294 25.025144 33.251049 25.033203 33.378906 C 25.346586 29.802897 28.344595 26.996094 32.001953 26.996094 C 35.665923 26.996094 38.666501 29.813176 38.970703 33.398438 C 38.979074 33.264091 39.001349 33.130794 39.001953 32.996094 C 39.001955 29.130094 35.867941 25.996094 32.001953 25.996094 z M 11.837891 35.996094 C 10.665258 36.023094 9.5181507 36.343987 8.5019531 36.929688 C 6.1764079 38.275336 4.8592945 40.824605 5.0449219 43.476562 C 5.2126709 41.199415 6.4713654 39.104662 8.5019531 37.929688 C 9.5181507 37.343987 10.665258 37.023094 11.837891 36.996094 C 14.396455 36.935494 16.7841 38.276188 18.064453 40.492188 C 18.592957 41.407816 18.882579 42.427504 18.960938 43.46875 C 19.055537 42.085175 18.76178 40.700302 18.064453 39.492188 C 16.7841 37.276188 14.396455 35.935494 11.837891 35.996094 z M 52.166016 35.996094 C 52.000616 35.996094 51.835142 35.995259 51.669922 36.005859 C 49.289915 36.118859 47.130775 37.434547 45.939453 39.498047 C 45.246253 40.703712 44.954566 42.085261 45.048828 43.464844 C 45.12696 42.427643 45.414589 41.410928 45.939453 40.498047 C 47.130775 38.434547 49.289915 37.118859 51.669922 37.005859 C 51.835142 36.995259 52.000616 36.996094 52.166016 36.996094 L 52.166016 36.998047 C 53.33899 37.026047 54.486118 37.348447 55.501953 37.935547 C 57.534421 39.111369 58.792284 41.208308 58.958984 43.486328 C 59.14607 40.833852 57.829613 38.282143 55.501953 36.935547 C 54.486118 36.348447 53.33899 36.026047 52.166016 35.998047 L 52.166016 35.996094 z M 32.001953 45.992188 C 28.135965 45.992188 25.001953 49.126188 25.001953 52.992188 C 25.00296 53.120388 25.025144 53.247143 25.033203 53.375 C 25.346588 49.798991 28.344595 46.992188 32.001953 46.992188 C 35.665923 46.992188 38.6665 49.80927 38.970703 53.394531 C 38.979074 53.260185 39.001345 53.126888 39.001953 52.992188 C 39.001953 49.126188 35.867941 45.992188 32.001953 45.992188 z"/>
 </g>
</svg>
